icons/desktop/16/svg/pdf-16.svg

<svg width="16" height="16" viewBox="0 0 16 16" fill="none" xmlns="http://www.w3.org/2000/svg">
<path fill-rule="evenodd" clip-rule="evenodd" d="M8.80273 0.015625C9.31366 0.029623 9.80013 0.23868 10.1621 0.600586L13.4072 3.8457C13.7822 4.21966 13.9921 4.72788 13.9922 5.25781L14 13.042C14 14.425 12.961 15.6004 11.584 15.7744C10.403 15.9244 9.19698 16 8 16C6.795 16 5.57874 15.9235 4.38574 15.7715C3.02484 15.5984 2 14.4249 2 13.042V2.96973C2.00015 1.60392 3.11392 0.387851 4.46973 0.21875C5.63273 0.07375 6.821 0 8 0C8.16795 0 8.49082 0.00762735 8.80273 0.015625ZM8.5 4.5C8.5 5.052 8.948 5.5 9.5 5.5H12.9004L8.5 1.09961V4.5Z" fill="black"/>
<path fill-rule="evenodd" clip-rule="evenodd" d="M5.125 9.25C5.74611 9.25 6.25 9.75389 6.25 10.375V10.625C6.25 11.2461 5.74611 11.75 5.125 11.75H4.75V12.625C4.75 12.8321 4.58211 13 4.375 13C4.16789 13 4 12.8321 4 12.625V9.625C4 9.41789 4.16789 9.25 4.375 9.25H5.125ZM4.75 11H5.125C5.33189 11 5.5 10.8319 5.5 10.625V10.375C5.5 10.1681 5.33189 10 5.125 10H4.75V11Z" fill="white"/>
<path fill-rule="evenodd" clip-rule="evenodd" d="M7.9375 9.25C8.69638 9.25026 9.3125 9.86606 9.3125 10.625V11.625C9.3125 12.3839 8.69638 12.9997 7.9375 13H7.3125C7.10539 13 6.9375 12.8321 6.9375 12.625V9.625C6.9375 9.41789 7.10539 9.25 7.3125 9.25H7.9375ZM7.6875 12.25H7.9375C8.28217 12.2497 8.5625 11.9697 8.5625 11.625V10.625C8.5625 10.2803 8.28217 10.0003 7.9375 10H7.6875V12.25Z" fill="white"/>
<path d="M11.625 9.25C11.8321 9.25 12 9.41789 12 9.625C12 9.83211 11.8321 10 11.625 10H10.875V10.875H11.5C11.7071 10.875 11.875 11.0429 11.875 11.25C11.875 11.4571 11.7071 11.625 11.5 11.625H10.875V12.625C10.875 12.8321 10.7071 13 10.5 13C10.2929 13 10.125 12.8321 10.125 12.625V9.625C10.125 9.41789 10.2929 9.25 10.5 9.25H11.625Z" fill="white"/>
</svg>

<!-- This Source Code Form is subject to the terms of the Mozilla Public
   - License, v. 2.0. If a copy of the MPL was not distributed with this
   - file, You can obtain one at http://mozilla.org/MPL/2.0/. -->
<svg xmlns="http://www.w3.org/2000/svg" width="16" height="16" fill="context-fill" fill-opacity="context-fill-opacity" viewBox="0 0 16 16">
    <path fill-rule="evenodd" d="M8.803.016a2 2 0 0 1 1.36.585l3.244 3.245c.375.374.585.882.585 1.412L14 13.042a2.764 2.764 0 0 1-2.416 2.732 28.6 28.6 0 0 1-7.198-.002A2.75 2.75 0 0 1 2 13.042V2.97C2 1.604 3.114.388 4.47.219A29 29 0 0 1 8 0c.168 0 .49.008.803.016M8.5 4.5a1 1 0 0 0 1 1h3.4L8.5 1.1z" clip-rule="evenodd" />
    <path fill-rule="evenodd" d="M5.125 9.25c.621 0 1.125.504 1.125 1.125v.25c0 .621-.504 1.125-1.125 1.125H4.75v.875a.375.375 0 0 1-.75 0v-3c0-.207.168-.375.375-.375zM4.75 11h.375a.375.375 0 0 0 .375-.375v-.25A.375.375 0 0 0 5.125 10H4.75zM7.938 9.25c.758 0 1.375.616 1.375 1.375v1c0 .759-.617 1.375-1.376 1.375h-.625a.375.375 0 0 1-.375-.375v-3c0-.207.168-.375.375-.375zm-.25 3h.25c.344 0 .625-.28.625-.625v-1A.626.626 0 0 0 7.937 10h-.25z" clip-rule="evenodd" />
    <path d="M11.625 9.25a.375.375 0 0 1 0 .75h-.75v.875h.625a.375.375 0 0 1 0 .75h-.625v1a.375.375 0 0 1-.75 0v-3c0-.207.168-.375.375-.375z" />
</svg>
